X:1
T:The Smith's A Gallant Fireman  "	"
O:1791
M:C
L:1/8
Q:80
C:
S:Strathspey
K:HP
[| {g}A2{GdGe}A3/2c/2{gef}e2{A}e3/2c/2 | \
{g}e3/2f/2{ag}a3/2e/2{g}d3/2c/2{g}B/2{d}A3/2 | \
{g}B2{GdGe}B3/2c/2{g}B3/2c/2{g}B/2{d}A3/2 |
{g}B3/2c/2{Gdc}d3/2e/2{g}f2{g}f/2a3/2 | \
{g}A2{GdGe}A3/2c/2{gef}e2{A}e3/2c/2 | \
{g}e3/2f/2{ag}a3/2e/2{g}d3/2c/2{g}B/2{d}A3/2 |
{Gdc}d3/2e/2{g}f3/2d/2{g}c3/2d/2{g}e3/2c/2 | \
{g}B3/2c/2{Gdc}d3/2e/2{g}f2{g}((3efg)|] [ | \
a2{GdG}a3/2e/2a2{GdG}a3/2f/2 |
{g}e3/2f/2{ag}a3/2e/2{g}d3/2c/2{g}B/2{d}A3/2 | \
{g}B2{GdGe}B3/2c/2{g}B3/2c/2{g}B/2{d}A3/2 | \
{g}B3/2c/2{Gdc}d3/2e/2{g}f2{g}((3efg) |
a2{GdG}a3/2e/2a2{GdG}a3/2f/2 | \
{g}e3/2f/2{ag}a3/2e/2{g}d3/2c/2{g}B/2{d}A3/2 | \
{Gdc}d3/2e/2{g}f3/2d/2{g}c3/2d/2{g}e3/2c/2 |
{g}B3/2c/2{Gdc}d3/2e/2{g}f2{g}f/2a3/2|]
